public/1-logo.svg

<svg width="88" height="42" viewBox="0 0 88 42" fill="none" xmlns="http://www.w3.org/2000/svg">
<path d="M15.8452 20.4287C15.8452 20.4287 14.8313 18.0815 14.8835 15.0622C14.9282 12.5023 16.317 7.93042 21.6958 7.93042C26.2147 7.93042 28.4601 11.2799 28.4601 11.2799C28.4601 11.2799 28.384 13.277 28.893 13.2695C29.3292 13.2629 29.6246 12.4684 30.1725 12.4634C30.7213 12.4585 31.2923 13.2969 31.2923 14.3496C31.2923 15.1831 30.8562 15.9329 30.319 15.9221C29.9358 15.9147 29.3093 15.2675 28.9261 15.2824C28.4866 15.2989 28.5263 16.0355 28.5263 16.0355L28.5603 20.3211L15.8452 20.4287Z" fill="#BC000A"/>
<path d="M34.3885 20.7309C34.3836 21.1107 35.0035 21.2755 34.9985 21.9409C34.9944 22.5111 34.1386 22.963 33.1289 22.9605C32.648 22.9597 31.3751 22.8811 31.3776 21.9409C31.3792 21.3864 32.1092 21.2912 32.1009 20.7309C32.0993 20.5976 31.9942 20.5024 31.8386 20.4354L28.5628 20.4288L28.6463 24.447C28.6463 24.447 28.6463 25.34 28.2731 25.4335C27.8162 25.5477 27.2187 24.8294 26.4738 24.874C25.8075 24.9138 25.8108 25.9789 25.8075 26.3936C25.8009 27.2734 26.1278 28.1581 26.727 28.1796C27.2733 28.1995 27.5067 27.4008 28.0331 27.4066C28.6464 27.4133 28.6463 28.7127 28.6463 28.7127L28.6381 29.0702H28.6463L28.8326 32.8029C28.8326 32.8029 35.0987 28.9179 37.2572 26.7247C40.4295 23.501 41.4301 20.4553 41.4301 20.4553L34.7974 20.442C34.5748 20.4999 34.3902 20.5918 34.3885 20.7309Z" fill="#008E2B"/>
<path d="M15.9694 20.7268L21.5022 20.5108C21.5022 20.5108 22.4655 20.4611 22.4622 20.0407C22.4597 19.6807 21.7273 19.4539 21.7157 18.8075C21.7024 18.0543 22.5458 17.6347 23.755 17.6347C24.9683 17.6347 25.3813 18.0535 25.3747 18.7744C25.3681 19.4473 24.754 19.5441 24.768 19.967C24.7813 20.3519 25.6213 20.3453 25.6213 20.3453L28.5611 20.3204L28.6472 24.4462C28.6472 24.4462 28.6472 25.3393 28.2739 25.4328C27.8171 25.547 27.2195 24.8286 26.4746 24.8733C25.8084 24.913 25.8117 25.9782 25.8084 26.3929C25.8018 27.2726 26.1287 28.1574 26.7279 28.1789C27.2741 28.1988 27.5075 27.4001 28.0339 27.4059C28.6472 27.4125 28.6472 28.7119 28.6472 28.7119L28.5611 32.3775C28.5611 32.3775 23.3172 29.7895 20.4891 27.0194C17.1835 23.78 15.9694 20.7268 15.9694 20.7268Z" fill="#0095A5"/>
<path d="M35.6317 7.93137C30.5533 7.93137 28.6472 11.4373 28.6472 11.4373V13.0512C28.7085 13.1861 28.7887 13.2713 28.8939 13.2697C29.33 13.263 29.6255 12.4685 30.1734 12.4635C30.7221 12.4586 31.2932 13.297 31.2932 14.3497C31.2932 15.1832 30.857 15.933 30.3199 15.9223C29.9367 15.9148 29.3102 15.2676 28.927 15.2825C28.7945 15.2875 28.7068 15.3578 28.6472 15.453V20.3005C28.6472 20.3005 30.0989 20.2972 30.7147 20.2856C31.2394 20.2757 32.0952 20.3435 32.101 20.7309C32.1092 21.2904 31.3793 21.3855 31.3776 21.9409C31.3751 22.8811 32.648 22.9597 33.1289 22.9605C34.1386 22.963 34.9944 22.5111 34.9986 21.9409C35.0035 21.2763 34.3836 21.1108 34.3886 20.7309C34.3927 20.4346 35.2154 20.3526 35.5117 20.351C36.9783 20.341 41.4649 20.3667 41.4649 20.3667C41.4649 20.3667 42.377 18.022 42.3762 15.2891C42.3762 12.7433 40.4767 7.93137 35.6317 7.93137Z" fill="#E8B100"/>
<path d="M1.38713 1.44415H0V0.11496H4.37161V1.44415H2.98448V5.19917H1.38713V1.44415Z" fill="#131313"/>
<path d="M9.47404 0.11496V5.19834H7.87669V3.32456H6.401V5.19834H4.80365V0.11496H6.401V1.91591H7.87669V0.11496H9.47404Z" fill="#131313"/>
<path d="M14.2049 3.90556V5.19834H10.2661V0.11496H14.1171V1.40774H11.8362V2.00281H13.8391V3.23766H11.8362V3.90556H14.2049Z" fill="#131313"/>
<path d="M16.8715 3.92046H16.4387V5.19834H14.8413V0.11496H17.1223C18.4416 0.11496 19.2808 0.855699 19.2808 2.03261C19.2808 2.7659 18.9555 3.31794 18.3878 3.62996L19.3826 5.19834H17.6768L16.8715 3.92046ZM17.0205 1.43671H16.4387V2.62768H17.0205C17.4608 2.62768 17.6702 2.40256 17.6702 2.03261C17.6702 1.66182 17.46 1.43671 17.0205 1.43671Z" fill="#131313"/>
<path d="M23.1318 4.31279H21.3317L21.0139 5.1992H19.39L21.4608 0.115814H23.0308L25.1016 5.1992H23.4496L23.1318 4.31279ZM22.6915 3.07795L22.2313 1.80007L21.7711 3.07795H22.6915Z" fill="#131313"/>
<path d="M29.8183 2.03263C29.8183 3.20954 28.9791 3.95029 27.6598 3.95029H26.9762V5.1992H25.378V0.115815H27.659C28.9791 0.114987 29.8183 0.855726 29.8183 2.03263ZM28.2069 2.03263C28.2069 1.66185 27.9975 1.43673 27.5572 1.43673H26.9753V2.62771H27.5572C27.9975 2.62771 28.2069 2.40259 28.2069 2.03263Z" fill="#131313"/>
<path d="M30.3596 0.11496H31.957V5.19834H30.3596V0.11496Z" fill="#131313"/>
<path d="M36.6869 3.90556V5.19834H32.7482V0.11496H36.5992V1.40774H34.3182V2.00281H36.3211V3.23766H34.3182V3.90556H36.6869Z" fill="#131313"/>
<path d="M37.0255 4.79206L37.5394 3.54314C37.9863 3.8262 38.5814 4.00828 39.1028 4.00828C39.5564 4.00828 39.7186 3.90648 39.7186 3.73267C39.7186 3.09373 37.0999 3.60935 37.0999 1.71405C37.0999 0.76971 37.8374 0 39.3064 0C39.9429 0 40.5992 0.145666 41.0933 0.44279L40.6125 1.68425C40.1457 1.43017 39.7054 1.30685 39.2932 1.30685C38.8264 1.30685 38.6774 1.45252 38.6774 1.62632C38.6774 2.23629 41.2961 1.72812 41.2961 3.60191C41.2961 4.53135 40.5587 5.31595 39.0896 5.31595C38.2975 5.31513 37.4997 5.10408 37.0255 4.79206Z" fill="#131313"/>
<path d="M70.8396 39.0258L70.4358 39.5083V40.9228H68.6679V35.1996H70.4358V37.2762L72.1887 35.1996H74.1469L72.0132 37.7181L74.2537 40.9236H72.173L70.8396 39.0258Z" fill="#131313"/>
<path d="M74.5201 35.1996H76.3186V40.9228H74.5201V35.1996Z" fill="#131313"/>
<path d="M77.21 35.1996H79.8394C81.623 35.1996 82.8496 36.2871 82.8496 38.0616C82.8496 39.8361 81.623 40.9236 79.8394 40.9236H77.21V35.1996ZM79.7625 39.4189C80.5173 39.4189 81.0354 38.9364 81.0354 38.0616C81.0354 37.1868 80.5173 36.7043 79.7625 36.7043H79.0077V39.4189H79.7625Z" fill="#131313"/>
<path d="M83.1914 40.4651L83.7708 39.059C84.274 39.3776 84.9444 39.582 85.5312 39.582C86.0418 39.582 86.2247 39.4678 86.2247 39.2717C86.2247 38.5525 83.2758 39.1326 83.2758 36.999C83.2758 35.9363 84.1068 35.0697 85.7604 35.0697C86.4771 35.0697 87.2162 35.2336 87.7724 35.5688L87.2311 36.9667C86.7056 36.6803 86.2098 36.5413 85.7447 36.5413C85.2191 36.5413 85.0511 36.7052 85.0511 36.9013C85.0511 37.5883 88 37.0155 88 39.1252C88 40.1722 87.1691 41.0544 85.5154 41.0544C84.6241 41.0536 83.7252 40.8169 83.1914 40.4651Z" fill="#131313"/>
<path d="M0 7.93124H7.83944V26.3H18.3364V32.8019H0V7.93124Z" fill="#131313"/>
<path d="M88 26.4779V32.8019H68.6671V7.93124H87.568V14.2553H76.3733V17.1694H86.2057V23.2095H76.3733V26.4787H88V26.4779Z" fill="#131313"/>
<path d="M68.6671 7.93124L58.8347 32.8028H51.1277L41.2953 7.93124H49.7331L55.2808 22.463L60.9609 7.93124H68.6671Z" fill="#131313"/>
</svg>

<svg xmlns="http://www.w3.org/2000/svg" viewBox="0 0 88 41.05"><defs><style>.cls-1{fill:#bc000a;}.cls-2{fill:#008e2b;}.cls-3{fill:#0095a5;}.cls-4{fill:#e8b100;}.cls-5{fill:#131313;}</style></defs><g id="Layer_2" data-name="Layer 2"><g id="Layer_1-2" data-name="Layer 1"><path class="cls-1" d="M15.85,20.43a14.28,14.28,0,0,1-1-5.37c0-2.56,1.44-7.13,6.82-7.13a8.46,8.46,0,0,1,6.76,3.35s-.08,2,.43,2,.73-.8,1.28-.81,1.12.84,1.12,1.89c0,.83-.43,1.58-1,1.57-.38,0-1-.65-1.39-.64s-.4.76-.4.76l0,4.28Z"/><path class="cls-2" d="M34.39,20.73c0,.38.61.55.61,1.21s-.86,1-1.87,1c-.48,0-1.75-.08-1.75-1,0-.55.73-.65.72-1.21,0-.13-.11-.23-.26-.29H28.56l.09,4s0,.89-.38,1-1.05-.6-1.8-.56-.66,1.11-.66,1.52c0,.88.32,1.77.92,1.79s.78-.78,1.3-.77.62,1.3.62,1.3v.36h0l.18,3.73s6.27-3.88,8.43-6.08a18,18,0,0,0,4.17-6.26l-6.63,0C34.57,20.5,34.39,20.59,34.39,20.73Z"/><path class="cls-3" d="M16,20.73l5.53-.22s1-.05,1-.47-.73-.59-.74-1.23.83-1.18,2-1.18,1.63.42,1.62,1.14-.62.77-.6,1.2.85.38.85.38l2.94,0,.09,4.13s0,.89-.38,1-1.05-.6-1.8-.56-.66,1.11-.66,1.52c0,.88.32,1.77.92,1.79s.78-.78,1.3-.77.62,1.3.62,1.3l-.09,3.67S23.32,29.79,20.49,27A20.41,20.41,0,0,1,16,20.73Z"/><path class="cls-4" d="M35.63,7.93a7.84,7.84,0,0,0-7,3.51v1.61c.06.14.14.22.24.22.44,0,.74-.8,1.28-.81s1.12.84,1.12,1.89c0,.83-.43,1.58-1,1.57-.38,0-1-.65-1.39-.64a.34.34,0,0,0-.28.17V20.3h2.06c.53,0,1.39.05,1.39.44,0,.56-.72.66-.72,1.21,0,.94,1.27,1,1.75,1,1,0,1.86-.45,1.87-1s-.62-.83-.61-1.21.83-.38,1.12-.38c1.47,0,6,0,6,0a15.6,15.6,0,0,0,.92-5.08C42.38,12.74,40.48,7.93,35.63,7.93Z"/><path class="cls-5" d="M1.39,1.44H0V.11H4.37V1.44H3V5.2H1.39Z"/><path class="cls-5" d="M9.47.11V5.2H7.88V3.32H6.4V5.2H4.8V.11H6.4V1.92H7.88V.11Z"/><path class="cls-5" d="M14.2,3.91V5.2H10.27V.11h3.85v1.3H11.84V2h2V3.24h-2v.67Z"/><path class="cls-5" d="M16.87,3.92h-.43V5.2h-1.6V.11h2.28A1.91,1.91,0,0,1,19.28,2a1.71,1.71,0,0,1-.89,1.6l1,1.57h-1.7ZM17,1.44h-.58V2.63H17c.44,0,.65-.23.65-.6S17.46,1.44,17,1.44Z"/><path class="cls-5" d="M23.13,4.31h-1.8L21,5.2H19.39L21.46.12H23L25.1,5.2H23.45Zm-.44-1.23L22.23,1.8l-.46,1.28Z"/><path class="cls-5" d="M29.82,2A1.91,1.91,0,0,1,27.66,4H27V5.2h-1.6V.12h2.28A1.9,1.9,0,0,1,29.82,2ZM28.21,2c0-.37-.21-.59-.65-.59H27V2.63h.58C28,2.63,28.21,2.4,28.21,2Z"/><path class="cls-5" d="M30.36.11H32V5.2h-1.6Z"/><path class="cls-5" d="M36.69,3.91V5.2H32.75V.11H36.6v1.3H34.32V2h2V3.24h-2v.67Z"/><path class="cls-5" d="M37,4.79l.51-1.25A3,3,0,0,0,39.1,4c.46,0,.62-.1.62-.28,0-.64-2.62-.12-2.62-2C37.1.77,37.84,0,39.31,0a3.61,3.61,0,0,1,1.78.44l-.48,1.24a2.76,2.76,0,0,0-1.32-.37c-.46,0-.61.14-.61.32,0,.61,2.62.1,2.62,2,0,.93-.74,1.72-2.21,1.72A4,4,0,0,1,37,4.79Z"/><path class="cls-5" d="M70.84,39l-.4.48v1.41H68.67V35.2h1.77v2.08l1.75-2.08h2L72,37.72l2.24,3.2H72.17Z"/><path class="cls-5" d="M74.52,35.2h1.8v5.72h-1.8Z"/><path class="cls-5" d="M77.21,35.2h2.63a2.86,2.86,0,1,1,0,5.72H77.21Zm2.55,4.22a1.36,1.36,0,0,0,0-2.72H79v2.72Z"/><path class="cls-5" d="M83.19,40.47l.58-1.41a3.44,3.44,0,0,0,1.76.52c.51,0,.69-.11.69-.31,0-.72-2.94-.14-2.94-2.27,0-1.06.83-1.93,2.48-1.93a3.92,3.92,0,0,1,2,.5L87.23,37a3.07,3.07,0,0,0-1.49-.43c-.52,0-.69.17-.69.36,0,.69,3,.12,3,2.23,0,1-.83,1.92-2.48,1.92A4.56,4.56,0,0,1,83.19,40.47Z"/><path class="cls-5" d="M0,7.93H7.84V26.3h10.5v6.5H0Z"/><path class="cls-5" d="M88,26.48V32.8H68.67V7.93h18.9v6.33H76.37v2.91h9.84v6H76.37v3.27Z"/><path class="cls-5" d="M68.67,7.93,58.83,32.8h-7.7L41.3,7.93h8.43l5.55,14.53L61,7.93Z"/></g></g></svg>
